src/images/app-icons/dark-theme/041.svg

<svg xmlns="http://www.w3.org/2000/svg" xmlns:xlink="http://www.w3.org/1999/xlink" viewBox="0 0 32 32"><defs><linearGradient id="041_svg__a" x1="5701" y1="1015.5" x2="5708" y2="1015.5" gradientTransform="translate(-5697 -999)" gradientUnits="userSpaceOnUse"><stop offset=".2"/><stop offset=".99" stop-opacity="0"/></linearGradient><linearGradient id="041_svg__b" x1="21" y1="15.5" x2="28" y2="15.5" xlink:href="#041_svg__a"/><linearGradient id="041_svg__d" y1="32" x2="32" gradientUnits="userSpaceOnUse"><stop offset=".1" stop-color="#3ddbd9"/><stop offset=".9" stop-color="#4589ff"/></linearGradient><mask id="041_svg__c" x="0" y="0" width="32" height="32" maskUnits="userSpaceOnUse"><path d="M26 22a4 4 0 00-3.858 3H8a4 4 0 010-8h2v-2H8a6 6 0 000 12h14.142A3.993 3.993 0 1026 22zm0 6a2 2 0 112-2 2 2 0 01-2 2zM6 10a4 4 0 003.858-3H24a4 4 0 010 8h-2v2h2a6 6 0 000-12H9.858A3.993 3.993 0 106 10zm0-6a2 2 0 11-2 2 2 2 0 012-2z" fill="#fff"/><path transform="rotate(180 7.5 16.5)" fill="url(#041_svg__a)" d="M4 12h7v9H4z"/><path fill="url(#041_svg__b)" d="M21 11h7v9h-7z"/></mask></defs><g data-name="Layer 2"><g data-name="Dark theme icons"><g mask="url(#041_svg__c)"><path fill="url(#041_svg__d)" d="M0 0h32v32H0z"/></g><path fill="#f4f4f4" d="M10 13h2v6h-2zM19 10v2h-6v-2zM19 20v2h-6v-2zM20 13h2v6h-2z"/></g></g></svg>

<svg xmlns="http://www.w3.org/2000/svg" xmlns:xlink="http://www.w3.org/1999/xlink" viewBox="0 0 32 32">
  <defs>
    <linearGradient id="a36715f6-6fb0-4edf-add9-02836b2658eb" x1="5551" y1="1015.5" x2="5558" y2="1015.5" gradientTransform="translate(-5547 -999)" gradientUnits="userSpaceOnUse">
      <stop offset="0.2"/>
      <stop offset="0.99" stop-opacity="0"/>
    </linearGradient>
    <linearGradient id="f258604f-b38a-44ad-9e76-f90d76e1986e" x1="21" y1="15.5" x2="28" y2="15.5" gradientTransform="matrix(1, 0, 0, 1, 0, 0)" xlink:href="#a36715f6-6fb0-4edf-add9-02836b2658eb"/>
    <mask id="f49f66c0-ab66-430c-831b-41db3af002f9" x="0" y="0" width="32" height="32" maskUnits="userSpaceOnUse">
      <g>
        <g>
          <path d="M26,22a4,4,0,0,0-3.858,3H8a4,4,0,0,1,0-8h2V15H8A6,6,0,0,0,8,27H22.142A3.993,3.993,0,1,0,26,22Zm0,6a2,2,0,1,1,2-2A2,2,0,0,1,26,28Z" fill="#fff"/>
          <path d="M6,10A4,4,0,0,0,9.858,7H24a4,4,0,0,1,0,8H22v2h2A6,6,0,0,0,24,5H9.858A3.993,3.993,0,1,0,6,10ZM6,4A2,2,0,1,1,4,6,2,2,0,0,1,6,4Z" fill="#fff"/>
        </g>
        <rect x="4" y="12" width="7" height="9" transform="translate(15 33) rotate(180)" fill="url(#a36715f6-6fb0-4edf-add9-02836b2658eb)"/>
        <rect x="21" y="11" width="7" height="9" fill="url(#f258604f-b38a-44ad-9e76-f90d76e1986e)"/>
      </g>
    </mask>
    <linearGradient id="a57a7c88-68f6-4fc2-aa2f-f23edf2e0aaf" y1="32" x2="32" gradientUnits="userSpaceOnUse">
      <stop offset="0.1" stop-color="#3ddbd9"/>
      <stop offset="0.9" stop-color="#4589ff"/>
    </linearGradient>
  </defs>
  <g id="af93ba84-fe7e-48d2-a086-45628ace05e7" data-name="Layer 2">
    <g id="bb3287d7-e109-4a4d-97e9-bf95fd872c63" data-name="Dark theme icons">
      <g>
        <g mask="url(#f49f66c0-ab66-430c-831b-41db3af002f9)">
          <rect width="32" height="32" fill="url(#a57a7c88-68f6-4fc2-aa2f-f23edf2e0aaf)"/>
        </g>
        <rect x="10" y="13" width="2" height="6" fill="#f4f4f4"/>
        <rect x="15" y="8" width="2" height="6" transform="translate(27 -5) rotate(90)" fill="#f4f4f4"/>
        <rect x="15" y="18" width="2" height="6" transform="translate(37 5) rotate(90)" fill="#f4f4f4"/>
        <rect x="20" y="13" width="2" height="6" fill="#f4f4f4"/>
      </g>
    </g>
  </g>
</svg>
